X:467
T:The Wearing of the Green
N:"moderate"
N:Irish title: cai.tea.d an glas
B:O'Neill's 411
Z:Transcribed by henrik.norbeck@mailbox.swipnet.se
M:C
L:1/8
K:G
GA|BBBA BddB|BAAG A2 Bd|ecHgf edHBG|AGGG G2 :|
gf|eedB ddGA|BdcBA B2 gf|eedB ddGB|AGFE D2 GA|
BBBA BddB|BAAG A2 Bd|ecHgf edHBG|AGGG G2||
